X: 16507
T: Hairy Dogleaf, The
R: reel
M: 4/4
K: Dmajor
|:D3 B ADFA|ABBB BAFE|D3 B ADFA|dBAF EGFE|
D3 B ADFA|ABBB BAFE|ABBB BAFA|1 dBAF EGFE:|2 dBAF Egfe||
|:d3 f edef|ABBB BAFA|d3 f edef|ag (3fga g2 fe|
d3 f edef|ABBB BAFA|ABBB BAFA|1 dBAF Egfe:|2 dBAF EGFE||

